X:11021
T:Kelso Accordion And Fiddle Club
R:March
C:Bob Liddle, 1983
O:Scotland
Z:Paul Hardy's Session Tunebook 2021 (see www.paulhardy.net). Creative Commons cc by-nc-sa licenced.
M:4/4
L:1/8
Q:1/4=130
K:G
GA|"G"B2 AG D2 G>F|"C"EAGE "G"D2 GA|B2 AB d2 cB|"D7"A2 A>B A2 GA|
"G"B2 AG D2 G>F|"C"EAGE "G"D2 GA|BdcB "D7"AcBA|"G"G2 G>A G2:|
|:Bc|"G"d2 Bd "C"g2 fe|"G"d2 BG "C"c2 Bc|"G"d2 Bd g2 fg|"D7"agfe dcBc|
"G"d2 Bd "C"g2 fe|"G"d2 BD "Em"E2 G>A|"G"BdcB "D7"AcBA|"G"G2 G>A G2:|

